dist/svg/icon-logo-primary.svg

<svg viewBox="0 0 692 313" xmlns="http://www.w3.org/2000/svg"><g fill="currentColor" fill-rule="nonzero"><path d="M544.34 77.32l11.56-10.91V33.27L521.23.13H405.66l-34.67 33.14V11.18L359.44.13h-46.23l-11.56 11.05v22.09l-23.11 22.09-23.11-22.09V11.18L243.87.13h-46.23l-11.55 11.05L174.53.13H128.3l-11.55 11.05v44.18L58.96.13H12.74L1.18 11.18v154.65l11.56 11.04h46.22l11.55-11.04v-44.19l57.79 55.23h46.23l11.56-11.04V77.45l57.78 55.23v33.15l11.56 11.04h46.22l11.56-11.04v-33.15l57.78-55.23v66.28l34.67 33.14h115.57l34.67-33.14v-33.14l-11.56-11.06h-57.78v11.06h-46.23V66.41h46.23v10.91zM1 198.59h17l7.62 29.5h.12l7.62-29.5h17v44.25h-10.9v-33.59h-.12L30 242.84h-8.8l-9.3-33.59h-.12v33.59H1zM57.45 220.6a9.77 9.77 0 0 1 5-8.61 20.53 20.53 0 0 1 10.23-2.23c7.62 0 15 1.67 15 10.78v14.06c0 2.73 0 5.7 1.24 8.24H78.33a12.55 12.55 0 0 1-.62-3c-2.73 2.91-6.69 4-10.6 4-6.2 0-11-3.1-11-9.73 0-10.41 11.4-9.67 18.72-11.16 1.8-.43 2.79-1 2.79-3 0-2.42-2.91-3.35-5.08-3.35-3 0-4.77 1.36-5.27 4h-9.82zm13.63 16.67c5 0 6.69-2.79 6.45-9.48-1.49.93-4.21 1.05-6.51 1.74s-4.34 1.55-4.34 4.09 1.98 3.65 4.4 3.65zM112.18 245.69c-2.48 7.07-6.38 7.93-13.45 7.93h-5v-8.55h3.66c2.42 0 4.22-1.36 4.22-3.59 0-1.74-2-6.69-2.67-8.43l-8.3-22.37h11.16l6.07 20.95h.13l6.07-20.95h10.78l-12.67 35.01zM143.3 209.75c10 0 17 7.37 17 17 0 9.63-7 17-17 17s-16.92-7.31-16.92-17c0-9.69 6.94-17 16.92-17zm0 26c5 0 6.45-4.77 6.45-8.92s-1.49-9-6.45-9-6.38 4.9-6.38 9 1.48 8.89 6.38 8.89v.03zM166.18 210.68h10.22v5.64h.12c1.55-4.15 5.14-6.26 9.67-6.26a11.21 11.21 0 0 1 2.48.25v9.61a13 13 0 0 0-4-.62c-5.21 0-7.93 3.59-7.93 7.62v15.93h-10.56v-32.17zM193 198.59h9.85v10.29c-.06 6.2-3.1 10.85-9.85 12v-5a5.45 5.45 0 0 0 4.46-5.83H193v-11.46zM218.74 232.25a4.24 4.24 0 0 0 1.74 3.59 6.6 6.6 0 0 0 3.9 1.12c2 0 5-.93 5-3.41s-3.35-2.91-5.15-3.41c-6.63-1.67-14.94-1.86-14.94-10.54 0-7.68 8.37-9.85 14.69-9.85 7 0 14.5 2 14.81 10.41H229a3 3 0 0 0-1.36-2.79 5.82 5.82 0 0 0-3.35-.81c-1.73 0-4.52.19-4.52 2.42 0 3 7.06 3.66 11.9 4.65 6.44 1.3 8.18 6 8.18 8.68 0 8.61-8.18 11.47-15.43 11.47-7.69 0-15.43-2.54-15.74-11.53h10.06zM285.13 197.66c13.88 0 21.82 10.23 21.82 23.05s-7.93 23.05-21.82 23.05-21.82-10.23-21.82-23.05 7.94-23.05 21.82-23.05zm0 36.19c7.44 0 10.29-6.51 10.29-13.14 0-6.63-2.85-13.14-10.29-13.14-7.44 0-10.29 6.51-10.29 13.14 0 6.63 2.85 13.15 10.29 13.15v-.01zM315.08 217.5H310v-6.82h5.08c0-9.23 3.22-12.09 12.21-12.09 1.67 0 3.41.12 5.08.19v7.44a22.79 22.79 0 0 0-2.85-.19c-2.42 0-3.9.31-3.9 3.22v1.43h6.32v6.82h-6.32v25.35h-10.54V217.5zM338 217.5h-5.08v-6.82H338c0-9.23 3.22-12.09 12.21-12.09 1.67 0 3.41.12 5.08.19v7.44a22.79 22.79 0 0 0-2.85-.19c-2.42 0-3.9.31-3.9 3.22v1.43h6.32v6.82h-6.32v25.35H338V217.5zm30.43-10.85h-10.52v-8.06h10.54l-.02 8.06zm-10.54 4h10.54v32.17h-10.52l-.02-32.17zM396.84 222.45a4.92 4.92 0 0 0-5.14-4.65c-5.89 0-6.82 5-6.82 9.48 0 4.15 1.8 8.43 6.26 8.43 3.72 0 5.52-2 6-5.52h10.23c-1 8.68-7.56 13.57-16.18 13.57-9.67 0-16.86-6.57-16.86-16.49 0-10.23 6.51-17.54 16.86-17.54 8.06 0 15.06 4.28 15.87 12.7l-10.22.02zM421.63 229.33c.19 4.46 2.73 7.31 7.19 7.31 2.54 0 5-1.12 6-3.53h9.85c-2 7.44-8.8 10.66-16 10.66-10.47 0-17.6-6.32-17.6-17.11 0-9.85 7.87-16.92 17.35-16.92 11.53 0 17.29 8.68 16.8 19.58l-23.59.01zm13.08-5.89c-.19-3.66-2.73-6.57-6.26-6.57-3.72 0-6.13 2.6-6.82 6.57h13.08zM472.34 217.5h-5.08v-6.82h5.08c0-9.23 3.22-12.09 12.21-12.09 1.67 0 3.41.12 5.08.19v7.44a22.81 22.81 0 0 0-2.85-.19c-2.42 0-3.9.31-3.9 3.22v1.43h6.32v6.82h-6.32v25.35h-10.54V217.5zM508.36 209.75c10 0 17 7.37 17 17 0 9.63-7 17-17 17s-16.92-7.31-16.92-17c0-9.69 6.94-17 16.92-17zm0 26c5 0 6.44-4.77 6.44-8.92s-1.49-9-6.44-9-6.38 4.9-6.38 9 1.48 8.89 6.38 8.89v.03zM531.23 210.68h10.23v5.64h.12c1.55-4.15 5.14-6.26 9.67-6.26a11.22 11.22 0 0 1 2.48.25v9.61a13 13 0 0 0-4-.62c-5.21 0-7.93 3.59-7.93 7.62v15.93h-10.57v-32.17zM.91 257.49h35.26v9.23H12.44v7.75h21.69v8.92H12.44v8.43h24.35v9.92H.91zM63.89 281.35a4.92 4.92 0 0 0-5.14-4.65c-5.89 0-6.82 5-6.82 9.48 0 4.15 1.8 8.43 6.26 8.43 3.72 0 5.52-2 6-5.52h10.23c-1 8.68-7.56 13.57-16.18 13.57-9.67 0-16.86-6.57-16.86-16.49 0-10.23 6.51-17.54 16.86-17.54 8.06 0 15.06 4.28 15.87 12.7l-10.22.02zM95.07 268.65c10 0 17 7.37 17 17 0 9.63-7 17-17 17s-16.92-7.31-16.92-17c0-9.69 6.94-17 16.92-17zm0 26c5 0 6.45-4.77 6.45-8.92s-1.49-9-6.45-9-6.38 4.9-6.38 9 1.48 8.89 6.38 8.89v.03zM117.58 269.58h10.22V274h.12c2-3.28 6.26-5.33 10.1-5.33 10.72 0 11.59 7.81 11.59 12.46v20.64h-10.53V283c0-3.1-1.05-5.64-5.27-5.64-4 0-5.7 3.41-5.7 6.88v17.54h-10.53v-32.2zM172 268.65c10 0 17 7.37 17 17 0 9.63-7 17-17 17s-16.92-7.31-16.92-17c0-9.69 6.92-17 16.92-17zm0 26c5 0 6.45-4.77 6.45-8.92s-1.49-9-6.45-9-6.38 4.9-6.38 9 1.48 8.89 6.38 8.89v.03zM194.51 269.58h10.23V274h.12a10.65 10.65 0 0 1 9.23-5.33c4 0 7.62 1.3 9.36 5.21a11.57 11.57 0 0 1 10-5.21c10.23 0 11.34 7.75 11.34 13.88v19.21h-10.5v-18.9c0-3.47-1.67-5.52-4.4-5.52-4.52 0-5 3.47-5 8.68v15.74H214.4v-18.3c0-3.78-1.05-6.14-4-6.14-3.78 0-5.39 2.23-5.39 8.74v15.68h-10.5v-32.16zM262.82 265.55h-10.54v-8.06h10.54v8.06zm-10.54 4h10.54v32.17h-10.54v-32.17zM291.2 281.35a4.92 4.92 0 0 0-5.14-4.65c-5.89 0-6.82 5-6.82 9.48 0 4.15 1.8 8.43 6.26 8.43 3.72 0 5.52-2 6-5.52h10.23c-1 8.68-7.56 13.57-16.18 13.57-9.67 0-16.86-6.57-16.86-16.49 0-10.23 6.51-17.54 16.86-17.54 8.06 0 15.06 4.28 15.87 12.7l-10.22.02zM347.12 256.56c13.88 0 21.82 10.23 21.82 23.05s-7.93 23.05-21.82 23.05-21.82-10.23-21.82-23.05 7.94-23.05 21.82-23.05zm0 36.19c7.44 0 10.29-6.51 10.29-13.14 0-6.63-2.85-13.14-10.29-13.14-7.44 0-10.29 6.51-10.29 13.14 0 6.63 2.85 13.15 10.29 13.15v-.01zM374.15 269.58h10v3.72h.12a10.14 10.14 0 0 1 8.86-4.65c10.1 0 14.38 8.61 14.38 17.72 0 8.37-4.46 16.3-13.57 16.3a10.84 10.84 0 0 1-9.17-4.4h-.12v14.25h-10.5v-42.94zm10.16 15.74c0 5.64 1.61 9.3 6.38 9.3s6.32-4.9 6.32-9.3c0-4.09-1.55-8.61-6.26-8.61-2.75 0-6.43 1.92-6.43 8.61h-.01zM412.58 269.58h10v3.72h.12a10.14 10.14 0 0 1 8.86-4.65c10.1 0 14.38 8.61 14.38 17.72 0 8.37-4.46 16.3-13.57 16.3a10.84 10.84 0 0 1-9.17-4.4h-.12v14.25h-10.5v-42.94zm10.16 15.74c0 5.64 1.61 9.3 6.38 9.3s6.32-4.9 6.32-9.3c0-4.09-1.55-8.61-6.26-8.61-2.78 0-6.43 1.92-6.43 8.61h-.01zM466.39 268.65c10 0 17 7.37 17 17 0 9.63-7 17-17 17s-16.92-7.31-16.92-17c0-9.69 6.94-17 16.92-17zm0 26c5 0 6.45-4.77 6.45-8.92s-1.49-9-6.45-9-6.38 4.9-6.38 9 1.48 8.89 6.38 8.89v.03zM487.1 269.58h10.23v5.64h.12c1.55-4.15 5.14-6.26 9.67-6.26a11.22 11.22 0 0 1 2.48.25v9.61a13 13 0 0 0-4-.62c-5.21 0-7.93 3.59-7.93 7.62v15.93H487.1v-32.17zM535 276.4h-6.5V291c0 2.54 1.49 3.1 3.78 3.1.93 0 1.8-.12 2.73-.12v7.75c-1.92.06-3.84.31-5.76.31-9 0-11.28-2.66-11.28-11.34v-14.3h-5.33v-6.82H518v-9.73h10.5v9.73h6.5v6.82zM572.32 301.74H562.1v-4.4h-.1a11.85 11.85 0 0 1-9.79 5.33c-9.23 0-11.9-5.33-11.9-13.76v-19.33h10.54v18.65c0 4.28 1.8 5.76 5.21 5.76 2.23 0 5.76-1.49 5.76-7.19v-17.22h10.54l-.04 32.16zM579.4 269.58h10.23V274h.12c2-3.28 6.26-5.33 10.1-5.33 10.72 0 11.59 7.81 11.59 12.46v20.64H600.9V283c0-3.1-1.05-5.64-5.27-5.64-4 0-5.7 3.41-5.7 6.88v17.54H579.4v-32.2zM628.74 265.55H618.2v-8.06h10.54v8.06zm-10.54 4h10.54v32.17H618.2v-32.17zM655.58 276.4h-6.51V291c0 2.54 1.49 3.1 3.78 3.1.93 0 1.8-.12 2.73-.12v7.75c-1.92.06-3.84.31-5.76.31-9 0-11.28-2.66-11.28-11.34v-14.3h-5.33v-6.82h5.33v-9.73h10.54v9.73h6.51l-.01 6.82zM679.38 304.6c-2.48 7.07-6.38 7.93-13.45 7.93h-5V304h3.66c2.42 0 4.21-1.36 4.21-3.59 0-1.74-2-6.69-2.66-8.43l-8.3-22.37H669l6.07 20.95h.12l6.07-20.95h10.78l-12.66 34.99z"/></g></svg>

<svg viewBox="0 0 692 313" xmlns="http://www.w3.org/2000/svg"><g fill="currentColor" fill-rule="nonzero"><path d="M544.34 77.32L555.9 66.41 555.9 33.27 521.23.13 405.66.13 370.99 33.27 370.99 11.18 359.44.13 313.21.13 301.65 11.18 301.65 33.27 278.54 55.36 255.43 33.27 255.43 11.18 243.87.13 197.64.13 186.09 11.18 174.53.13 128.3.13 116.75 11.18 116.75 55.36 58.96.13 12.74.13 1.18 11.18 1.18 165.83 12.74 176.87 58.96 176.87 70.51 165.83 70.51 121.64 128.3 176.87 174.53 176.87 186.09 165.83 186.09 77.45 243.87 132.68 243.87 165.83 255.43 176.87 301.65 176.87 313.21 165.83 313.21 132.68 370.99 77.45 370.99 143.73 405.66 176.87 521.23 176.87 555.9 143.73 555.9 110.59 544.34 99.53 486.56 99.53 486.56 110.59 440.33 110.59 440.33 66.41 486.56 66.41 486.56 77.32zM1 198.59L18 198.59 25.62 228.09 25.74 228.09 33.36 198.59 50.36 198.59 50.36 242.84 39.46 242.84 39.46 209.25 39.34 209.25 30 242.84 21.2 242.84 11.9 209.25 11.78 209.25 11.78 242.84 1 242.84zM57.45 220.6C57.4195546 217.03234 59.3362619 213.73177 62.45 211.99 65.6099533 210.375001 69.1345775 209.606681 72.68 209.76 80.3 209.76 87.68 211.43 87.68 220.54L87.68 234.6C87.68 237.33 87.68 240.3 88.92 242.84L78.33 242.84C78.0016031 241.86907 77.7933857 240.861566 77.71 239.84 74.98 242.75 71.02 243.84 67.11 243.84 60.91 243.84 56.11 240.74 56.11 234.11 56.11 223.7 67.51 224.44 74.83 222.95 76.63 222.52 77.62 221.95 77.62 219.95 77.62 217.53 74.71 216.6 72.54 216.6 69.54 216.6 67.77 217.96 67.27 220.6L57.45 220.6zM71.08 237.27C76.08 237.27 77.77 234.48 77.53 227.79 76.04 228.72 73.32 228.84 71.02 229.53 68.72 230.22 66.68 231.08 66.68 233.62 66.68 236.16 68.66 237.27 71.08 237.27zM112.18 245.69C109.7 252.76 105.8 253.62 98.73 253.62L93.73 253.62 93.73 245.07 97.39 245.07C99.81 245.07 101.61 243.71 101.61 241.48 101.61 239.74 99.61 234.79 98.94 233.05L90.64 210.68 101.8 210.68 107.87 231.63 108 231.63 114.07 210.68 124.85 210.68 112.18 245.69zM143.3 209.75C153.3 209.75 160.3 217.12 160.3 226.75 160.3 236.38 153.3 243.75 143.3 243.75 133.3 243.75 126.38 236.44 126.38 226.75 126.38 217.06 133.32 209.75 143.3 209.75zM143.3 235.75C148.3 235.75 149.75 230.98 149.75 226.83 149.75 222.68 148.26 217.83 143.3 217.83 138.34 217.83 136.92 222.73 136.92 226.83 136.92 230.93 138.4 235.72 143.3 235.72L143.3 235.75zM166.18 210.68L176.4 210.68 176.4 216.32 176.52 216.32C178.07 212.17 181.66 210.06 186.19 210.06 187.02339 210.050883 187.855197 210.134734 188.67 210.31L188.67 219.92C187.377217 219.50575 186.027527 219.296548 184.67 219.3 179.46 219.3 176.74 222.89 176.74 226.92L176.74 242.85 166.18 242.85 166.18 210.68zM193 198.59L202.85 198.59 202.85 208.88C202.79 215.08 199.75 219.73 193 220.88L193 215.88C195.768674 215.379256 197.701095 212.853244 197.46 210.05L193 210.05 193 198.59zM218.74 232.25C218.685634 233.66183 219.338087 235.007983 220.48 235.84 221.630139 236.613601 222.994644 237.005459 224.38 236.96 226.38 236.96 229.38 236.03 229.38 233.55 229.38 231.07 226.03 230.64 224.23 230.14 217.6 228.47 209.29 228.28 209.29 219.6 209.29 211.92 217.66 209.75 223.98 209.75 230.98 209.75 238.48 211.75 238.79 220.16L229 220.16C229.100365 219.049529 228.576582 217.975005 227.64 217.37 226.630723 216.767971 225.462835 216.485586 224.29 216.56 222.56 216.56 219.77 216.75 219.77 218.98 219.77 221.98 226.83 222.64 231.67 223.63 238.11 224.93 239.85 229.63 239.85 232.31 239.85 240.92 231.67 243.78 224.42 243.78 216.73 243.78 208.99 241.24 208.68 232.25L218.74 232.25zM285.13 197.66C299.01 197.66 306.95 207.89 306.95 220.71 306.95 233.53 299.02 243.76 285.13 243.76 271.24 243.76 263.31 233.53 263.31 220.71 263.31 207.89 271.25 197.66 285.13 197.66zM285.13 233.85C292.57 233.85 295.42 227.34 295.42 220.71 295.42 214.08 292.57 207.57 285.13 207.57 277.69 207.57 274.84 214.08 274.84 220.71 274.84 227.34 277.69 233.86 285.13 233.86L285.13 233.85zM315.08 217.5L310 217.5 310 210.68 315.08 210.68C315.08 201.45 318.3 198.59 327.29 198.59 328.96 198.59 330.7 198.71 332.37 198.78L332.37 206.22C331.424907 206.097137 330.473038 206.03368 329.52 206.03 327.1 206.03 325.62 206.34 325.62 209.25L325.62 210.68 331.94 210.68 331.94 217.5 325.62 217.5 325.62 242.85 315.08 242.85 315.08 217.5zM338 217.5L332.92 217.5 332.92 210.68 338 210.68C338 201.45 341.22 198.59 350.21 198.59 351.88 198.59 353.62 198.71 355.29 198.78L355.29 206.22C354.344907 206.097137 353.393038 206.03368 352.44 206.03 350.02 206.03 348.54 206.34 348.54 209.25L348.54 210.68 354.86 210.68 354.86 217.5 348.54 217.5 348.54 242.85 338 242.85 338 217.5zM368.43 206.65L357.91 206.65 357.91 198.59 368.45 198.59 368.43 206.65zM357.89 210.65L368.43 210.65 368.43 242.82 357.91 242.82 357.89 210.65zM396.84 222.45C396.694571 219.751375 394.399659 217.675239 391.7 217.8 385.81 217.8 384.88 222.8 384.88 227.28 384.88 231.43 386.68 235.71 391.14 235.71 394.86 235.71 396.66 233.71 397.14 230.19L407.37 230.19C406.37 238.87 399.81 243.76 391.19 243.76 381.52 243.76 374.33 237.19 374.33 227.27 374.33 217.04 380.84 209.73 391.19 209.73 399.25 209.73 406.25 214.01 407.06 222.43L396.84 222.45zM421.63 229.33C421.82 233.79 424.36 236.64 428.82 236.64 431.36 236.64 433.82 235.52 434.82 233.11L444.67 233.11C442.67 240.55 435.87 243.77 428.67 243.77 418.2 243.77 411.07 237.45 411.07 226.66 411.07 216.81 418.94 209.74 428.42 209.74 439.95 209.74 445.71 218.42 445.22 229.32L421.63 229.33zM434.71 223.44C434.52 219.78 431.98 216.87 428.45 216.87 424.73 216.87 422.32 219.47 421.63 223.44L434.71 223.44zM472.34 217.5L467.26 217.5 467.26 210.68 472.34 210.68C472.34 201.45 475.56 198.59 484.55 198.59 486.22 198.59 487.96 198.71 489.63 198.78L489.63 206.22C488.684902 206.09719 487.733036 206.033732 486.78 206.03 484.36 206.03 482.88 206.34 482.88 209.25L482.88 210.68 489.2 210.68 489.2 217.5 482.88 217.5 482.88 242.85 472.34 242.85 472.34 217.5zM508.36 209.75C518.36 209.75 525.36 217.12 525.36 226.75 525.36 236.38 518.36 243.75 508.36 243.75 498.36 243.75 491.44 236.44 491.44 226.75 491.44 217.06 498.38 209.75 508.36 209.75zM508.36 235.75C513.36 235.75 514.8 230.98 514.8 226.83 514.8 222.68 513.31 217.83 508.36 217.83 503.41 217.83 501.98 222.73 501.98 226.83 501.98 230.93 503.46 235.72 508.36 235.72L508.36 235.75zM531.23 210.68L541.46 210.68 541.46 216.32 541.58 216.32C543.13 212.17 546.72 210.06 551.25 210.06 552.083386 210.050966 552.915184 210.134817 553.73 210.31L553.73 219.92C552.437217 219.50575 551.087527 219.296548 549.73 219.3 544.52 219.3 541.8 222.89 541.8 226.92L541.8 242.85 531.23 242.85 531.23 210.68zM.91 257.49L36.17 257.49 36.17 266.72 12.44 266.72 12.44 274.47 34.13 274.47 34.13 283.39 12.44 283.39 12.44 291.82 36.79 291.82 36.79 301.74.91 301.74zM63.89 281.35C63.7445712 278.651375 61.449659 276.575239 58.75 276.7 52.86 276.7 51.93 281.7 51.93 286.18 51.93 290.33 53.73 294.61 58.19 294.61 61.91 294.61 63.71 292.61 64.19 289.09L74.42 289.09C73.42 297.77 66.86 302.66 58.24 302.66 48.57 302.66 41.38 296.09 41.38 286.17 41.38 275.94 47.89 268.63 58.24 268.63 66.3 268.63 73.3 272.91 74.11 281.33L63.89 281.35zM95.07 268.65C105.07 268.65 112.07 276.02 112.07 285.65 112.07 295.28 105.07 302.65 95.07 302.65 85.07 302.65 78.15 295.34 78.15 285.65 78.15 275.96 85.09 268.65 95.07 268.65zM95.07 294.65C100.07 294.65 101.52 289.88 101.52 285.73 101.52 281.58 100.03 276.73 95.07 276.73 90.11 276.73 88.69 281.63 88.69 285.73 88.69 289.83 90.17 294.62 95.07 294.62L95.07 294.65zM117.58 269.58L127.8 269.58 127.8 274 127.92 274C129.92 270.72 134.18 268.67 138.02 268.67 148.74 268.67 149.61 276.48 149.61 281.13L149.61 301.77 139.08 301.77 139.08 283C139.08 279.9 138.03 277.36 133.81 277.36 129.81 277.36 128.11 280.77 128.11 284.24L128.11 301.78 117.58 301.78 117.58 269.58zM172 268.65C182 268.65 189 276.02 189 285.65 189 295.28 182 302.65 172 302.65 162 302.65 155.08 295.34 155.08 285.65 155.08 275.96 162 268.65 172 268.65zM172 294.65C177 294.65 178.45 289.88 178.45 285.73 178.45 281.58 176.96 276.73 172 276.73 167.04 276.73 165.62 281.63 165.62 285.73 165.62 289.83 167.1 294.62 172 294.62L172 294.65zM194.51 269.58L204.74 269.58 204.74 274 204.86 274C206.762387 270.70084 210.28165 268.66859 214.09 268.67 218.09 268.67 221.71 269.97 223.45 273.88 225.654255 270.526648 229.438707 268.554949 233.45 268.67 243.68 268.67 244.79 276.42 244.79 282.55L244.79 301.76 234.29 301.76 234.29 282.86C234.29 279.39 232.62 277.34 229.89 277.34 225.37 277.34 224.89 280.81 224.89 286.02L224.89 301.76 214.4 301.76 214.4 283.46C214.4 279.68 213.35 277.32 210.4 277.32 206.62 277.32 205.01 279.55 205.01 286.06L205.01 301.74 194.51 301.74 194.51 269.58zM262.82 265.55L252.28 265.55 252.28 257.49 262.82 257.49 262.82 265.55zM252.28 269.55L262.82 269.55 262.82 301.72 252.28 301.72 252.28 269.55zM291.2 281.35C291.054571 278.651375 288.759659 276.575239 286.06 276.7 280.17 276.7 279.24 281.7 279.24 286.18 279.24 290.33 281.04 294.61 285.5 294.61 289.22 294.61 291.02 292.61 291.5 289.09L301.73 289.09C300.73 297.77 294.17 302.66 285.55 302.66 275.88 302.66 268.69 296.09 268.69 286.17 268.69 275.94 275.2 268.63 285.55 268.63 293.61 268.63 300.61 272.91 301.42 281.33L291.2 281.35zM347.12 256.56C361 256.56 368.94 266.79 368.94 279.61 368.94 292.43 361.01 302.66 347.12 302.66 333.23 302.66 325.3 292.43 325.3 279.61 325.3 266.79 333.24 256.56 347.12 256.56zM347.12 292.75C354.56 292.75 357.41 286.24 357.41 279.61 357.41 272.98 354.56 266.47 347.12 266.47 339.68 266.47 336.83 272.98 336.83 279.61 336.83 286.24 339.68 292.76 347.12 292.76L347.12 292.75zM374.15 269.58L384.15 269.58 384.15 273.3 384.27 273.3C386.199672 270.299296 389.564292 268.533441 393.13 268.65 403.23 268.65 407.51 277.26 407.51 286.37 407.51 294.74 403.05 302.67 393.94 302.67 390.342267 302.817374 386.906174 301.168648 384.77 298.27L384.65 298.27 384.65 312.52 374.15 312.52 374.15 269.58zM384.31 285.32C384.31 290.96 385.92 294.62 390.69 294.62 395.46 294.62 397.01 289.72 397.01 285.32 397.01 281.23 395.46 276.71 390.75 276.71 388 276.71 384.32 278.63 384.32 285.32L384.31 285.32zM412.58 269.58L422.58 269.58 422.58 273.3 422.7 273.3C424.629672 270.299296 427.994292 268.533441 431.56 268.65 441.66 268.65 445.94 277.26 445.94 286.37 445.94 294.74 441.48 302.67 432.37 302.67 428.772267 302.817374 425.336174 301.168648 423.2 298.27L423.08 298.27 423.08 312.52 412.58 312.52 412.58 269.58zM422.74 285.32C422.74 290.96 424.35 294.62 429.12 294.62 433.89 294.62 435.44 289.72 435.44 285.32 435.44 281.23 433.89 276.71 429.18 276.71 426.4 276.71 422.75 278.63 422.75 285.32L422.74 285.32zM466.39 268.65C476.39 268.65 483.39 276.02 483.39 285.65 483.39 295.28 476.39 302.65 466.39 302.65 456.39 302.65 449.47 295.34 449.47 285.65 449.47 275.96 456.41 268.65 466.39 268.65zM466.39 294.65C471.39 294.65 472.84 289.88 472.84 285.73 472.84 281.58 471.35 276.73 466.39 276.73 461.43 276.73 460.01 281.63 460.01 285.73 460.01 289.83 461.49 294.62 466.39 294.62L466.39 294.65zM487.1 269.58L497.33 269.58 497.33 275.22 497.45 275.22C499 271.07 502.59 268.96 507.12 268.96 507.953386 268.950966 508.785184 269.034817 509.6 269.21L509.6 278.82C508.307217 278.40575 506.957527 278.196548 505.6 278.2 500.39 278.2 497.67 281.79 497.67 285.82L497.67 301.75 487.1 301.75 487.1 269.58zM535 276.4L528.5 276.4 528.5 291C528.5 293.54 529.99 294.1 532.28 294.1 533.21 294.1 534.08 293.98 535.01 293.98L535.01 301.73C533.09 301.79 531.17 302.04 529.25 302.04 520.25 302.04 517.97 299.38 517.97 290.7L517.97 276.4 512.64 276.4 512.64 269.58 518 269.58 518 259.85 528.5 259.85 528.5 269.58 535 269.58 535 276.4zM572.32 301.74L562.1 301.74 562.1 297.34 562 297.34C559.828161 300.636424 556.157413 302.634901 552.21 302.67 542.98 302.67 540.31 297.34 540.31 288.91L540.31 269.58 550.85 269.58 550.85 288.23C550.85 292.51 552.65 293.99 556.06 293.99 558.29 293.99 561.82 292.5 561.82 286.8L561.82 269.58 572.36 269.58 572.32 301.74zM579.4 269.58L589.63 269.58 589.63 274 589.75 274C591.75 270.72 596.01 268.67 599.85 268.67 610.57 268.67 611.44 276.48 611.44 281.13L611.44 301.77 600.9 301.77 600.9 283C600.9 279.9 599.85 277.36 595.63 277.36 591.63 277.36 589.93 280.77 589.93 284.24L589.93 301.78 579.4 301.78 579.4 269.58zM628.74 265.55L618.2 265.55 618.2 257.49 628.74 257.49 628.74 265.55zM618.2 269.55L628.74 269.55 628.74 301.72 618.2 301.72 618.2 269.55zM655.58 276.4L649.07 276.4 649.07 291C649.07 293.54 650.56 294.1 652.85 294.1 653.78 294.1 654.65 293.98 655.58 293.98L655.58 301.73C653.66 301.79 651.74 302.04 649.82 302.04 640.82 302.04 638.54 299.38 638.54 290.7L638.54 276.4 633.21 276.4 633.21 269.58 638.54 269.58 638.54 259.85 649.08 259.85 649.08 269.58 655.59 269.58 655.58 276.4zM679.38 304.6C676.9 311.67 673 312.53 665.93 312.53L660.93 312.53 660.93 304 664.59 304C667.01 304 668.8 302.64 668.8 300.41 668.8 298.67 666.8 293.72 666.14 291.98L657.84 269.61 669 269.61 675.07 290.56 675.19 290.56 681.26 269.61 692.04 269.61 679.38 304.6z"/></g></svg>
